X:197
T:Reyne celestre
T:Les miracles de Notre-Dame
C:Gautier de Coincy (1177-1236)
M:6/8
L:1/8
Q:1/4=110
K:F 
V:1
G- | Gd3dd- | dc3c2 | z2B2A2- | 
AGF2A2- | AA2 zG2 | d3 dd2 | c3 c2z | 
c2A3B | A2G3G- | GzG2d2- | ddd2c2- | 
cc2 z2B- | BA3GF- | FA3A2 | zG2 d3 | 
dd2 c3 | c2z2c2 | A3 BA2 | G3 G2z | 
B2A B2c/2B/2 | A3 A2B | AGF G2A | F3 F2z | 
B2A B2c | A3 A2B | AGA GFE | F3 F2z | 
B2A B2c | A3 A2B/2A/2 | AGF G2A | F3 F2z | 
B2A B2c/2B/2 | A3 A2B | AGA GFE | D3 D2E | 
G2G A2G | F2E DCE | GED E2F | EDC D3 | 
z2E G2G | A2G F2E | DCE G2D | E2F EDC | 
D3 z3 | D2C F2G | A3 A2A | c2d c2 (3B/2A/2G/2 | 
F3 F2A | c2c B2B | A2A G2G | F2F E2E | 
D2D C2E | G2D E2F | EDC D3 |]
V:3 clef=perc stafflines=1 staffscale=0.8
z | z6 | z6 | z6 | 
z6 | z6 | z6 | z6 | 
z6 | z6 | z6 | z6 | 
z6 | z6 | z6 | z6 | 
z6 | z6 | z6 | z6 | \
B2B B2B | B2B B2B | B2B B2B | B2B B2B | 
B2B B2B | B2B B2B | B2B B2B | B2B B2B | 
B2B B2B | B2B B2B | B2B B2B | B2B B2B | 
B2B B2B | B2B B2B | B2B B2B | B2B B2B | 
B2B B2B | B2B B2B | B2B B2B | B2B B2B | 
B2B B2B | B2B B2B | B2B B2B | B2B B2B | 
B2B B2B | B2B B2B | B2B B2B | B2B B2B | 
B2B B2B | B2B B2B | B2B B2B | B2B B2B | 
B2B B2B | B2B B2B | B2B B3 |] 





